Origami/64x64/apps/preferences-system-windows.svg

<svg width="64" height="64" version="1" xmlns="http://www.w3.org/2000/svg">
 <path d="m19 4c-0.2958 0-0.5742 0.0576-0.8438 0.1368 0.2732-0.0654 0.5436-0.1368 0.8438-0.1368zm-3 6v29c0 1.662 1.338 3 3 3h38c1.662 0 3-1.338 3-3v-29h-44z" style="fill:#c2c2c2"/>
 <path d="m16 39v1c0 1.662 1.338 3 3 3h38c1.662 0 3-1.338 3-3v-1c0 1.662-1.338 3-3 3h-38c-1.662 0-3-1.338-3-3z" style="opacity:.2"/>
 <path d="m4 28v29c0 1.662 1.338 3 3 3h38c1.662 0 3-1.338 3-3v-29h-44z" style="fill:#d3d3d3"/>
 <path d="m7 22c-1.662 0-3 1.338-3 3v3h44v-3c0-1.662-1.338-3-3-3z" style="fill:#636e73"/>
 <path d="m7 22c-1.662 0-3 1.338-3 3v1c0-1.662 1.338-3 3-3h38c1.662 0 3 1.338 3 3v-1c0-1.662-1.338-3-3-3h-38z" style="fill:#ffffff;opacity:.1"/>
 <path d="m19 4c-1.662 0-3 1-3 3v3h44v-3c0-1.662-1.338-3-3-3z" style="fill:#5a6367"/>
 <path d="m19 4c-1.662 0-3 1.338-3 3v1c0-1.662 1.338-3 3-3h38c1.662 0 3 1.338 3 3v-1c0-1.662-1.338-3-3-3h-38z" style="fill:#ffffff;opacity:.1"/>
 <path d="m4 57v1c0 1.662 1.338 3 3 3h38c1.662 0 3-1.338 3-3v-1c0 1.662-1.338 3-3 3h-38c-1.662 0-3-1.338-3-3z" style="opacity:.2"/>
</svg>

<svg xmlns="http://www.w3.org/2000/svg" width="64" height="64" version="1">
 <path style="fill:#c2c2c2" d="M 19,4 C 18.7042,4 18.4258,4.0576 18.1562,4.1368 18.4294,4.0714 18.6998,4 19,4 Z m -3,6 0,29 c 0,1.662 1.338,3 3,3 l 38,0 c 1.662,0 3,-1.338 3,-3 l 0,-29 -44,0 z"/>
 <path style="opacity:0.2" d="m 16,39 0,1 c 0,1.662 1.338,3 3,3 l 38,0 c 1.662,0 3,-1.338 3,-3 l 0,-1 c 0,1.662 -1.338,3 -3,3 l -38,0 c -1.662,0 -3,-1.338 -3,-3 z"/>
 <path style="fill:#d3d3d3" d="m 4,28 0,29 c 0,1.662 1.338,3 3,3 l 38,0 c 1.662,0 3,-1.338 3,-3 L 48,28 4,28 Z"/>
 <path style="fill:#636e73" d="m 7,22 c -1.662,0 -3,1.338 -3,3 l 0,3 44,0 0,-3 c 0,-1.662 -1.338,-3 -3,-3 z"/>
 <path style="opacity:0.1;fill:#ffffff" d="M 7 22 C 5.338 22 4 23.338 4 25 L 4 26 C 4 24.338 5.338 23 7 23 L 45 23 C 46.662 23 48 24.338 48 26 L 48 25 C 48 23.338 46.662 22 45 22 L 7 22 z"/>
 <path style="fill:#5a6367" d="m 19,4 c -1.662,0 -3,1 -3,3 l 0,3 44,0 0,-3 C 60,5.338 58.662,4 57,4 Z"/>
 <path style="opacity:0.1;fill:#ffffff" d="M 19 4 C 17.338 4 16 5.338 16 7 L 16 8 C 16 6.338 17.338 5 19 5 L 57 5 C 58.662 5 60 6.338 60 8 L 60 7 C 60 5.338 58.662 4 57 4 L 19 4 z"/>
 <path style="opacity:0.2" d="m 4,57 0,1 c 0,1.662 1.338,3 3,3 l 38,0 c 1.662,0 3,-1.338 3,-3 l 0,-1 c 0,1.662 -1.338,3 -3,3 L 7,60 C 5.338,60 4,58.662 4,57 Z"/>
</svg>
